X: 72
T: Niech co chce będzie, żyw Pan ludu swemu
C: Mikołaj Gomółka
%%abc-version 2.0
%%abcx-abcm2ps-target-version 5.9.1 (29 Sep 2008)
%%abc-creator hum2abc beta
%%abcx-conversion-date 2021/10/04 07:59:09
%%abc-edited-by Marta Lawrence
%%abcx-initial-encoding-date 2020-02-13
%%humdrum-veritas 4185207923
%%humdrum-veritas-data 4074056625
%%linebreak <none>
%%barnumbers 0
L: 1/4
M: C|
N: Derived from pl-wn--sd-xvi-qu-273--073_gomolka-mikolaj--niech-co-chce-bedzie-zyw-pan-ludu-swemu.krn
%%staves [1 2 3 4]
V: 1 clef=treble
V: 2
V: 3 clef=alto
V: 4
K: Bb
[V:1] c4B2A2 [|] 
[V:2] A4B2c2 [|] 
[V:3] C4D=EF4 [|] 
[V:4] F,4B,2F,2 [|] 
[V:1] G4F2c4 [|] 
[V:2] c2>B2AGF2 [|] 
[V:3] =E2F2C4 [|] 
[V:4] C4F,2F,2 [|] 
[V:1] A2d2c2 [|] 
[V:2] =E2>C2DEF4 [|] 
[V:3] C2G,2A,2 [|] 
[V:4] C4B,2A,2 [|] 
[V:1] B4A2G2 [|] 
[V:2] =E2F2E2 [|] 
[V:3] =B,C2_B,C2C2 [|] 
[V:4] G,4F,2C,2 [|] 
[V:1] G2G2F3=E [|] 
[V:2] =E2E2D2D2 [|] 
[V:3] C2C2A,2B,2 [|] 
[V:4] C,2C,2D,2B,,2 [|] 
[V:1] D4=E2BA [|] 
[V:2] A,G,A,B,C2D4 [|] 
[V:3] F,4G,A,B,3 [|] 
[V:4] D,4C,2B,,2 [|] 
[V:1] GFF4=E2 [|] 
[V:2] B,2C3B, [|] 
[V:3] A,G,F,G,4 [|] 
[V:4] D,4C,4 [|] 
[V:1] F32 |]  
[V:2] !fermata!A,16x16 |]  
[V:3] F,16F,16 |]  
[V:4] F,32 |]  


